svg/design/rotate_x_line.svg

<?xml version="1.0" encoding="UTF-8"?>
<svg width="24px" height="24px" viewBox="0 0 24 24" version="1.1" xmlns="http://www.w3.org/2000/svg" xmlns:xlink="http://www.w3.org/1999/xlink">
    <title>rotate_x_line</title>
    <g id="Icon" stroke="none" stroke-width="1" fill="none" fill-rule="evenodd">
        <g id="Design" transform="translate(-624.000000, -288.000000)" fill-rule="nonzero">
            <g id="rotate_x_line" transform="translate(624.000000, 288.000000)">
                <path d="M24,0 L24,24 L0,24 L0,0 L24,0 Z M12.5935,23.2578 L12.5819,23.2595 L12.5109,23.295 L12.4919,23.2987 L12.4767,23.295 L12.4057,23.2595 C12.3958,23.2564 12.387,23.259 12.3821,23.2649 L12.378,23.2758 L12.3609,23.7031 L12.3659,23.7235 L12.3769,23.7357 L12.4805,23.8097 L12.4953,23.8136 L12.5071,23.8097 L12.6107,23.7357 L12.6233,23.7197 L12.6267,23.7031 L12.6096,23.2758 C12.6076,23.2657 12.601,23.2593 12.5935,23.2578 Z M12.8584,23.1453 L12.8445,23.1473 L12.6598,23.2397 L12.6499,23.2499 L12.6472,23.2611 L12.6651,23.6906 L12.6699,23.7034 L12.6784,23.7105 L12.8793,23.8032 C12.8914,23.8069 12.9022,23.803 12.9078,23.7952 L12.9118,23.7812 L12.8777,23.1665 C12.8753,23.1546 12.8674,23.147 12.8584,23.1453 Z M12.143,23.1473 C12.1332,23.1424 12.1222,23.1453 12.1156,23.1526 L12.1099,23.1665 L12.0758,23.7812 C12.0751,23.7927 12.0828,23.8019 12.0926,23.8046 L12.1083,23.8032 L12.3092,23.7105 L12.3186,23.7024 L12.3225,23.6906 L12.3404,23.2611 L12.3372,23.2485 L12.3278,23.2397 L12.143,23.1473 Z" id="MingCute"></path>
                <path d="M7.43344,7.27102 L9.01268,8.37682 C9.26326,8.52664 9.44634,8.78437 9.49023,9.09598 C9.52845,9.36738 9.45389,9.62867 9.30224,9.83244 L8.17017,11.4492 C7.85339,11.9016 7.22984,12.0116 6.77744,11.6948 C6.44777,11.4639 6.29995,11.0702 6.36658,10.6985 C5.82661,10.8555 5.36069,11.0316 4.98035,11.2192 C4.5581,11.4274 4.28805,11.6271 4.13591,11.7901 C3.94845636,11.9909636 4.0460424,12.1421562 4.20972711,12.2866728 L4.32624,12.3825 L4.32624,12.3825 C4.65642,12.6427 5.19616,12.9207 5.95227,13.1728 C7.45402,13.6734 9.59229,14.0001 12,14.0001 C14.4077,14.0001 16.546,13.6734 18.0477,13.1728 C18.8038,12.9207 19.3436,12.6427 19.6738,12.3825 L19.79824,12.2818832 C19.954784,12.14724 20.05584,12.00676 19.8856,11.8138 C19.7556,11.6664 19.5208,11.481 19.1451,11.2831 C18.3948,10.8878 17.2595,10.5342 15.8366,10.2985 C15.2917,10.2083 14.9232,9.69341 15.0134,9.14855 C15.1037,8.60369 15.6186,8.23516 16.1634,8.32542 C17.704,8.58061 19.0686,8.98217 20.0774,9.51372 C21.0018,10.0007 22,10.8029 22,12.0001 C22,12.8521 21.4811,13.5045 20.9117,13.9533 C20.331,14.4109 19.5528,14.7793 18.6802,15.0701 C16.9246,15.6553 14.5629,16.0001 12,16.0001 C9.43715,16.0001 7.07541,15.6553 5.31981,15.0701 C4.44724,14.7793 3.66896,14.4109 3.08829,13.9533 C2.51889,13.5045 2,12.8521 2,12.0001 C2,11.3635 2.29478,10.8315 2.67386,10.4254 C3.04798,10.0246 3.54694,9.69612 4.0957,9.42548 C4.66056,9.14689 5.32789,8.90544 6.07046,8.70449 C5.80778,8.36716 5.78268,7.88511 6.04071,7.5166 C6.35749,7.06419 6.98103,6.95424 7.43344,7.27102 Z M12,4 C12.5523,4 13,4.44772 13,5 L13,13 L11,13 L11,5 C11,4.44772 11.4477,4 12,4 Z M11,19 L11,17 L13,17 L13,19 C13,19.5523 12.5523,20 12,20 C11.4477,20 11,19.5523 11,19 Z" id="形状" fill="#09244B"></path>
            </g>
        </g>
    </g>
</svg>

<svg xmlns="http://www.w3.org/2000/svg" width="24" height="24"><g fill="none" fill-rule="nonzero"><path d="M24 0v24H0V0h24ZM12.594 23.258l-.012.002-.071.035-.02.004-.014-.004-.071-.036c-.01-.003-.019 0-.024.006l-.004.01-.017.428.005.02.01.013.104.074.015.004.012-.004.104-.074.012-.016.004-.017-.017-.427c-.002-.01-.009-.017-.016-.018Zm.264-.113-.014.002-.184.093-.01.01-.003.011.018.43.005.012.008.008.201.092c.012.004.023 0 .029-.008l.004-.014-.034-.614c-.003-.012-.01-.02-.02-.022Zm-.715.002a.023.023 0 0 0-.027.006l-.006.014-.034.614c0 .012.007.02.017.024l.015-.002.201-.093.01-.008.003-.011.018-.43-.003-.012-.01-.01-.184-.092Z"/><path fill="#09244B" d="m7.433 7.271 1.58 1.106a.998.998 0 0 1 .29 1.455L8.17 11.45a1 1 0 0 1-1.803-.75 8.595 8.595 0 0 0-1.387.52c-.422.208-.692.408-.844.571-.188.201-.09.352.074.497l.116.095c.33.26.87.539 1.626.79C7.454 13.674 9.592 14 12 14s4.546-.327 6.048-.827c.756-.252 1.296-.53 1.626-.79l.124-.101c.157-.135.258-.275.088-.468-.13-.148-.365-.333-.74-.53-.751-.396-1.887-.75-3.31-.985a1 1 0 1 1 .327-1.974c1.541.256 2.906.657 3.914 1.189C21.002 10 22 10.803 22 12c0 .852-.519 1.505-1.088 1.953-.581.458-1.36.826-2.232 1.117-1.755.585-4.117.93-6.68.93-2.563 0-4.925-.345-6.68-.93-.873-.29-1.651-.66-2.232-1.117C2.518 13.505 2 12.853 2 12c0-.636.295-1.168.674-1.575.374-.4.873-.729 1.422-1 .565-.278 1.232-.52 1.974-.72A1 1 0 0 1 7.433 7.27ZM12 4a1 1 0 0 1 1 1v8h-2V5a1 1 0 0 1 1-1Zm-1 15v-2h2v2a1 1 0 1 1-2 0Z"/></g></svg>
